svgs/sharp-solid/oven.svg

<svg xmlns="http://www.w3.org/2000/svg" viewBox="0 0 448 512"><!--! Font Awesome Pro 6.6.0 by @fontawesome - https://fontawesome.com License - https://fontawesome.com/license (Commercial License) Copyright 2024 Fonticons, Inc. --><path d="M0 0L0 160l448 0L448 0 0 0zM56 80a24 24 0 1 1 48 0A24 24 0 1 1 56 80zM176 56a24 24 0 1 1 0 48 24 24 0 1 1 0-48zm72 24a24 24 0 1 1 48 0 24 24 0 1 1 -48 0zM368 56a24 24 0 1 1 0 48 24 24 0 1 1 0-48zm16 200l0 192L64 448l0-192 320 0zM64 192L0 192l0 64L0 448l0 64 64 0 320 0 64 0 0-64 0-192 0-64-64 0L64 192zm272 96l-224 0-16 0 0 32 16 0 224 0 16 0 0-32-16 0z"/></svg>

<svg xmlns="http://www.w3.org/2000/svg" viewBox="0 0 448 512"><!--! Font Awesome Pro 6.4.2 by @fontawesome - https://fontawesome.com License - https://fontawesome.com/license (Commercial License) Copyright 2023 Fonticons, Inc. --><path d="M0 0V160H448V0H0zM56 80a24 24 0 1 1 48 0A24 24 0 1 1 56 80zM176 56a24 24 0 1 1 0 48 24 24 0 1 1 0-48zm72 24a24 24 0 1 1 48 0 24 24 0 1 1 -48 0zM368 56a24 24 0 1 1 0 48 24 24 0 1 1 0-48zm16 200V448H64V256H384zM64 192H0v64V448v64H64 384h64V448 256 192H384 64zm272 96H112 96v32h16H336h16V288H336z"/></svg>
